X:149
T:Cornish Quickstep
C:Traditional English
S:Colin Hume's website,  colinhume.com  - chords can also be printed below the stave.
N:Often used for the dance "Cornish Six-Hand Reel".
Q:1/2=120
M:4/4
L:1/8
K:D
P:A
|: ^f=f | "D"f2dc d2A^G | "/"A2d2 f3f | "Em"g2f2 e2d2 | "A7"c2B2 A2^f=f |\
"D"f2dc d2A^G | "/"A2d2 f3f | "A7"e2A2 B2c2 | "D"d6 :|
|: A2 | "D"F2AA A2A2 | "G"G2BB B2B2 | "A7"A2cc c2c2 | "D"defe dcBA |\
"D"F2AA A2A2 | "G"G2BB B2B2 | "A7"A2cc c2e2 | "D"d6 :|

